X:16
T:Carleen's Reel
R:reel
C:John Campbell
D:John Campbell, Cape Breton Violin Music (1975-2006)
Z:Paul Stewart Cranford (P.S.C.), <http://www.cranfordpub.com>
L:1/8
M:C|
Q:333
K:A
AF|E2 CE FECA|ECCE F2 FA|EFAB cefb|ecAc BAFB|
AFEF ECCA|ECCE F2 FA|EFAB cefb|ecBc A/A/A:|
|:ef|ecce fecb|ecBc f2 fb|ecBc ecce|fbec BABc|
ecce fecb|ecBc f2 fg|a<efa ecBc|efec A/A/A:|
